!!!COM:	Josquin des Prez
!!!CDT:	~1450-1521/08/27
!!!OPR:	Missa La sol fa re mi
!!!ONM:	3
!!!OTL:	Credo
!!!AGN:	Mass; Credo
!!!SCT:	NJE 11.2
!!!SCA:	New Josquin Edition 11.2
!!!voices: 4
!!!voices-OPR:	4
**kern	**kern	**kern	**kern
*staff4	*staff3	*staff2	*staff1
*Ivox	*Ivox	*Ivox	*Ivox
*I"Bassus	*I"Tenor	*I"Altus	*I"Superius
*I'B	*I'T	*I'A	*I'S
*>[A,B,C]	*>[A,B,C]	*>[A,B,C]	*>[A,B,C]
*>Patrem[A]	*>Patrem[A]	*>Patrem[A]	*>Patrem[A]
*>Incarnatus[B]	*>Incarnatus[B]	*>Incarnatus[B]	*>Incarnatus[B]
*>Crucifixus[C]	*>Crucifixus[C]	*>Crucifixus[C]	*>Crucifixus[C]
*clefF4	*clefGv2	*clefGv2	*clefG2
*>A	*>A	*>A	*>A
*k[]	*k[]	*k[]	*k[]
*M3/1	*M3/1	*M3/1	*M3/1
*met(O|)	*met(O|)	*met(O|)	*met(O|)
=1-	=1-	=1-	=1-
!!section: Patrem
!!!OMD: Patrem
0E	[0.e	0E	0b
[1AA	.	[1A	[1cc
=2	=2	=2	=2
1AA]	0.e_	1A]	1cc]
0E	.	2.G/	0b
.	.	4E/	.
.	.	2E/	.
.	.	2B\	.
=3	=3	=3	=3
2r	0.e_	2c\	1g
2E\	.	2B\	.
2A\	.	2c\	2a/
2.G\	.	2B\	1b
.	.	2E/	.
4F\	.	.	.
4E\	.	[2e\	[2cc\
4D\	.	.	.
=4	=4	=4	=4
2.C/	0.e]	2e\]	4cc\]
.	.	.	4b\
.	.	2c\	1a
4D\	.	.	.
1E	.	1B	.
.	.	.	2g#i/
2r	.	1A	1a
2AA/	.	.	.
=5	=5	=5	=5
2BB/	[0.d	2.D/	2f/
2GG/	.	.	2g/
.	.	4E/	.
0D	.	2F/	1a
.	.	2F/	.
.	.	1F	1a
=6	=6	=6	=6
2r	0.d]	2G/	2g/
2D\	.	2F/	2a/
2G\	.	2G/	2b-i\
2F\	.	2D/	1a
1B-i	.	1G	.
.	.	.	2g/
=7	=7	=7	=7
1.A	0.c	2r	1a
.	.	1e	.
.	.	.	2.cc\
2F\	.	2f\	.
.	.	.	4dd\
1C	.	2g\	2ee\
.	.	2g\	2ee\
=8	=8	=8	=8
2r	0.A	2.a\	2ee\
1.D	.	.	2.ff\
.	.	4g\	.
.	.	2a\	.
.	.	.	4ee\
.	.	2f\	1dd
1AA	.	1e	.
.	.	.	2cc#i\
=9	=9	=9	=9
2r	0.B	1d	0dd
1G	.	.	.
.	.	2G/	.
2G\	.	2.g\	.
2G\	.	.	1dd
.	.	4f\	.
2G\	.	2d\	.
=10	=10	=10	=10
1A	0.r	2f\	1cc
.	.	1e	.
2G\	.	.	2b\
2F\	.	2A/	1a
1E	.	2B\	.
.	.	2c\	2g/
=11	=11	=11	=11
1D	0.r	2d\	2b\
.	.	2.f\	2.a/
1r	.	.	.
.	.	4e\	4g/
.	.	1d	2f/
1A	.	.	1e
.	.	2c#i\	.
=12	=12	=12	=12
1B-i	0.r	2.d\	2d/
.	.	.	2.dd\
.	.	4e\	.
1A	.	4f\	.
.	.	4g\	4cc\
.	.	1a	1cc
2F\	.	.	.
2G\	.	2g\	2b\
=13	=13	=13	=13
2A\	0.r	2f\	2a/
1G	.	2g\	2.b\
.	.	2e\	.
.	.	.	4g/
2F\	.	2f\	4a/
.	.	.	2cc\
1G	.	1d	.
.	.	.	8b/L
.	.	.	8a/J
.	.	.	2b\
=14	=14	=14	=14
0C	[0.e	0c	1.cc
.	.	.	4b\
.	.	.	4a/
2.E\	.	1B	1g
4F\	.	.	.
=15	=15	=15	=15
1G	0.e_	1E	1r
1A	.	1r	1cc
2.G\	.	2.E/	2.b\
4F\	.	4F/	4a/
=16	=16	=16	=16
2E\	0.e]	2G/	2b\
2AA/	.	2A/	2cc\
2E\	.	2G/	2b\
2AA/	.	2A/	2.cc\
1C	.	1E	.
.	.	.	4b\
.	.	.	2g/
=17	=17	=17	=17
0D	[0.d	2r	2f/
.	.	1F	2d/
.	.	.	1a
.	.	2F/	.
1GG	.	1G	1b-i
=18	=18	=18	=18
0D	0.d]	1A	2.a/
.	.	.	4f/
.	.	1A	1f
1GG	.	1B-i	1g
=19	=19	=19	=19
1AA	0.c	2A/	2e/
.	.	2A/	1a
1F	.	1A	.
.	.	.	4g/
.	.	.	4f/
1C	.	1G	1e
=20	=20	=20	=20
0D	0.A	2r	2r
.	.	1F	2d/
.	.	.	1a
.	.	2D/	.
1AA	.	2E/	1cc
.	.	2F/	.
=21	=21	=21	=21
2r	0B	0G	2b\
1E	.	.	1g
2F\	.	.	4f/
.	.	.	4e/
2G\	1r	2B\	2d/
2E\	.	2c\	2g/
=22	=22	=22	=22
2F\	0.r	1d	2f/
1G	.	.	1d
.	.	1B	.
2E\	.	.	2g/
2D\	.	1d	2a/
[2G\	.	.	[2b\
=23	=23	=23	=23
4G\]	0.r	1e	4b\]
4E\	.	.	4g/
2A\	.	.	2cc\
2G\	.	1e	2b\
1A	.	.	1cc
.	.	1f	.
4G\	.	.	4b\
4F\	.	.	4a/
=24	=24	=24	=24
2A\	0.r	1e	2cc\
2G\	.	.	2b\
2.c\	.	2r	2g/
.	.	2e\	1cc
4B\	.	.	.
2A\	.	2c\	.
2G\	.	[2d\	2b\
=25	=25	=25	=25
2F\	0.r	2d\]	2a/
2E\	.	2e\	2g/
1D	.	2f\	1f
.	.	1d	.
2r	.	.	1e
2A\	.	2c#i\	.
=26	=26	=26	=26
2G\	0.r	1d	2r
2.B\	.	.	1d
.	.	1r	.
4A\	.	.	.
1A	.	.	2c/
.	.	2r	1B
2G#i\	.	2d\	.
=27	=27	=27	=27
2A\	0.r	2c\	1A
2AA/	.	2.e\	.
2C/	.	.	1r
.	.	4d\	.
2D\	.	1d	.
1E	.	.	2r
.	.	2c#i\	2g/
=28	=28	=28	=28
1D	0.r	1d	2f/
.	.	.	2.a/
1E	.	1G	.
.	.	.	4g/
.	.	.	1g
1D	.	1A	.
.	.	.	2f#i/
=29	=29	=29	=29
1E	[0.e	1G	0g
2r	.	1.c	.
2C/	.	.	.
2.C/	.	.	2r
.	.	2B\	2g/
4D\	.	.	.
=30	=30	=30	=30
0.E	0.e_	1B	2.g/
.	.	.	4a/
.	.	2r	0b
.	.	2G/	.
.	.	1G	.
=31	=31	=31	=31
1AA	0.e]	1A	1cc
1E	.	2.G/	2b\
.	.	.	1g
.	.	4F/	.
1C	.	1E	.
.	.	.	4f/
.	.	.	4e/
=32	=32	=32	=32
0D	0.d	2r	2.f/
.	.	1F	.
.	.	.	4d/
.	.	.	2d/
.	.	2F/	1dd
1BB	.	1G	.
.	.	.	2b\
=33	=33	=33	=33
1AA	0.c	0A	2cc\
.	.	.	1a
2r	.	.	.
2AA/	.	.	4g/
.	.	.	4f/
1C	.	1G	1e
=34	=34	=34	=34
0D	0.A	1.F	2r
.	.	.	2f/
.	.	.	2d/
.	.	2D/	2.f/
2.C/	.	2.E/	.
.	.	.	4e/
.	.	.	4e/
4BB/	.	4F/	4d/
=35	=35	=35	=35
0.GG	[0.B	0G	0.d
.	.	2r	.
.	.	[2d\	.
=36	=36	=36	=36
2.G\	0.B]	4d\]	0.r
.	.	4d\	.
.	.	2d\	.
4G\	.	.	.
2G\	.	2e\	.
2G\	.	2.d\	.
2.G\	.	.	.
.	.	4B\	.
.	.	[2B\	.
4E\	.	.	.
=37	=37	=37	=37
1E	0.r	2B\]	0.r
.	.	2.c\	.
2.F\	.	.	.
.	.	4A/	.
.	.	1A	.
4D\	.	.	.
1D	.	.	.
.	.	2B\	.
=38	=38	=38	=38
2E\	0.r	2c\	0.r
2F\	.	2.d\	.
2.G\	.	.	.
.	.	4B\	.
.	.	2.B\	.
4E\	.	.	.
2.E\	.	.	.
.	.	4A/	.
.	.	4G/	.
4D\	.	4F/	.
=39	=39	=39	=39
4C/	0.r	2E/	0.r
4BB/	.	.	.
2AA/	.	2.c\	.
2C/	.	.	.
.	.	4B\	.
2D\	.	1A	.
1BB	.	.	.
.	.	2G#i/	.
=40	=40	=40	=40
2AA/	[0.e	1A	0.r
2.c\	.	.	.
.	.	1A	.
4B\	.	.	.
1A	.	.	.
.	.	1B	.
2G#i\	.	.	.
=41	=41	=41	=41
2A\	0.e]	1A	2r
2.AA/	.	.	1cc
.	.	2r	.
4BB/	.	.	.
4C/	.	2A/	2cc\
4D\	.	.	.
2E\	.	2G/	2b\
2C/	.	2A/	2cc\
=42	=42	=42	=42
2D\	1.d	2F/	2a/
2GG/	.	2G/	2.b\
2BB/	.	2D/	.
.	.	.	4g/
2C/	2c\	2E/	1g
1D	1A	2D/	.
.	.	[2d\	2f#i/
=43	=43	=43	=43
1GG	0.B	4d\]	1g
.	.	4G/	.
.	.	1G	.
1G	.	.	2r
.	.	2d\	2g/
1E	.	2e\	2g/
.	.	2g\	2g/
=44	=44	=44	=44
1D	0.r	2.f\	1a
.	.	4d\	.
1r	.	4e\	2g/
.	.	4f\	.
.	.	1d	2f/
1r	.	.	1e
.	.	2c#i\	.
=45	=45	=45	=45
1r	0.r	2d\	2d/
.	.	2e\	2g/
2r	.	2f\	2a/
2G\	.	2.g\	2.b\
2G\	.	.	.
.	.	4f\	4cc\
2G\	.	2d\	4dd\
.	.	.	4cc\
=46	=46	=46	=46
*	*	*M3/1	*
*	*	*met(3)	*
1A	0.r	3f\	2a/
.	.	3e\	.
.	.	.	2cc\
.	.	3c\	.
2G\	.	3.d\	2b\
2F\	.	6c\	1a
.	.	3A/	.
1E	.	3c\	.
.	.	3%2B	.
.	.	.	2g/
=47	=47	=47	=47
*	*	*M3/1	*
*	*	*met(O|)	*
2r	0.r	2.A/	2.cc\
1F	.	.	.
.	.	4B\	4b\
.	.	2c\	4a/
.	.	.	4g/
2D\	.	2d\	2f/
2E\	.	2G/	2g/
2F\	.	2c\	2a/
=48	=48	=48	=48
1G	0.r	2B\	2d/
.	.	2.e\	1g
2E\	.	.	.
.	.	4d\	.
2F\	.	1c	4f/
.	.	.	4e/
1G	.	.	1d
.	.	2B\	.
=49	=49	=49	=49
2r	0.e	1c	2c/
2A\	.	.	2cc\
2G\	.	2r	2b\
2.A\	.	1c	2.cc\
4G\	.	.	4b\
2E\	.	2B\	2g/
=50	=50	=50	=50
2F\	0.d	2A/	2a/
2G\	.	2G/	2b-i\
2F\	.	2A/	2a/
2.G\	.	2G/	2.b-i\
.	.	2B\	.
4F\	.	.	4a/
2D\	.	2A/	2f/
=51	=51	=51	=51
2E\	0c	2r	2g/
2.F\	.	4A/	1a
.	.	4B\	.
.	.	4c\	.
4E\	.	4d\	.
2C/	.	2e\	1g
1D	1A	[1d	.
.	.	.	2f#i/
=52	=52	=52	=52
1GG 1G	[0.Bl	1d]	[0.gl
2r	.	2G/	.
2G\	.	2d\	.
2.E\	.	1e	.
4F\	.	.	.
=53	=53	=53	=53
0.Gl	0.B]	0.dl	0.g]
!!LO:LB:i:g=z
=54||	=54||	=54||	=54||
*>B	*>B	*>B	*>B
!!section: Et incarnatus est
!!!OMD: Et incarnatus est
*M2/1	*M2/1	*M2/1	*M2/1
*met(C|)	*met(C|)	*met(C|)	*met(C|)
0C	[0e	0c	0r
=55	=55	=55	=55
1C	1e]	1c	0r
1G	1d	1B	.
=56	=56	=56	=56
1A	1c	1c	1e
1F	1A	1d	1f
=57	=57	=57	=57
[0E	0B	0e	1g
.	.	.	1g
=58	=58	=58	=58
0E]	[0e	1r	1g
.	.	1B	1g
=59	=59	=59	=59
0C	0e]	1c	0g
.	.	1c	.
=60	=60	=60	=60
0D	0d	0A	1f
.	.	.	1d
=61	=61	=61	=61
0AA	1c	0A	1e
.	1A	.	1f
=62	=62	=62	=62
0E	0B	1E	0g
.	.	1e	.
=63	=63	=63	=63
0F	0r	2d\	0a
.	.	1c	.
.	.	4B\	.
.	.	4A/	.
=64	=64	=64	=64
0C	0e	2c\	0r
.	.	2B\	.
.	.	2A/	.
.	.	2G/	.
=65	=65	=65	=65
0D	[0d	0F	0a
=66	=66	=66	=66
0GG	0d_	0G	0b-i
=67	=67	=67	=67
0D	0d]	0A	1a
.	.	.	1f
=68	=68	=68	=68
1E	1c	1G	1g
1F	1A	1c	[1a
=69	=69	=69	=69
1G	0B	1B	2a/]
.	.	.	2g/
1E	.	1G	[1g
=70	=70	=70	=70
0D	0r	1.A	1g]
.	.	.	1f
.	.	2B\	.
=71	=71	=71	=71
[0C	[0e	[0c	[0g
=72	=72	=72	=72
0C]	0e]	0c]	0g]
=73	=73	=73	=73
0D	[0d	0A	0f
=74	=74	=74	=74
0GG	0d_	0B-i	0g
=75	=75	=75	=75
0D	0d]	[0A	[0f
=76	=76	=76	=76
0F	[0c	0A]	0f]
=77	=77	=77	=77
0C	0c]	0G	0e
=78	=78	=78	=78
[0D	[0A	[0F	[0f
=79	=79	=79	=79
1D]	1A]	1F]	1f]
1GG	1B	1G	1d
=80	=80	=80	=80
0GGl	0Bl	0Gl	0dl
!!LO:LB:i:g=z
=81||	=81||	=81||	=81||
*>C	*>C	*>C	*>C
!!section: Crucifixus
!!!OMD: Crucifixus
*M2/1	*M2/1	*M2/1	*M2/1
*met(C|)	*met(C|)	*met(C|)	*met(C|)
1r	1e	0r	0r
1G	1d	.	.
=82	=82	=82	=82
1A	2c\	1r	0r
.	2A/	.	.
1G	1B	1d	.
=83	=83	=83	=83
1E	0r	1e	1g
2F\	.	1d	1a
2D\	.	.	.
=84	=84	=84	=84
2.E\	1r	2.B\	1.g
4F\	.	4E/	.
1G	[1e	2E/	.
.	.	2B\	4f/
.	.	.	4e/
=85	=85	=85	=85
2A\	1e]	2c\	2e/
2E\	.	2B\	2g/
2F\	1d	2r	2f/
2G\	.	2B\	2d/
=86	=86	=86	=86
2C/	2c\	2.c\	2e/
2F\	2A/	.	2f/
.	.	4d\	.
1E	1B	1e	1g
=87	=87	=87	=87
2AA/	1r	1.c	0a
1A	.	.	.
.	[1e	.	.
4G\	.	4B\	.
4F\	.	4A/	.
=88	=88	=88	=88
2A\	0e]	2c\	0r
2G\	.	2B\	.
1c	.	2A/	.
.	.	2c\	.
=89	=89	=89	=89
2B\	2d\	2d\	0r
1A	2c\	2.e\	.
.	1A	.	.
.	.	4c\	.
4G\	.	2d\	.
4F\	.	.	.
=90	=90	=90	=90
0E	1B	2.e\	1r
.	.	4f\	.
.	[1e	[1g	2r
.	.	.	[2b\
=91	=91	=91	=91
0r	0e_	2g\]	2b\]
.	.	2c\	2cc\
.	.	2g\	2b\
.	.	2c\	[2cc\
=92	=92	=92	=92
0r	1e]	1g	4cc\]
.	.	.	4b\
.	.	.	2g/
.	1d	1f	2a/
.	.	.	[2b\
=93	=93	=93	=93
0r	2c\	2e\	4b\]
.	.	.	4a/
.	2A/	2c\	1a
.	1B	2.d\	.
.	.	.	2g#i/
.	.	4e\	.
=94	=94	=94	=94
2r	1r	2f\	2a/
2A\	.	2.e\	2cc\
2G\	[1e	.	2b\
.	.	4d\	.
[2A\	.	4c\	[2cc\
.	.	4B\	.
=95	=95	=95	=95
2A\]	0e_	2A/	2cc\]
4G\	.	1c	4b\
4F\	.	.	4a/
2A\	.	.	2cc\
2G\	.	[2g\	[2b\
=96	=96	=96	=96
2E\	1e]	2g\]	2b\]
2A\	.	2e\	2cc\
2F\	1d	2f\	2a/
2G\	.	2d\	[2b\
=97	=97	=97	=97
2E\	2c\	2e\	4b\]
.	.	.	4a/
2F\	2A/	2c\	1a
2D\	1B	2d\	.
[2E\	.	[2B\	4g/
.	.	.	4f/
=98	=98	=98	=98
2E\]	1e	4B\]	2g/
.	.	4A/	.
2C/	.	1A	2a/
1BB	1d	.	1b
.	.	2G#i/	.
=99	=99	=99	=99
1AA	2c\	1A	2e/
.	2A/	.	2cc\
1r	1B	2E/	2b\
.	.	2B\	2g/
=100	=100	=100	=100
0r	0r	2A/	2.a/
.	.	2.c\	.
.	.	.	4g/
.	.	.	2e/
.	.	4B\	.
.	.	2G/	2b\
=101	=101	=101	=101
0r	0r	2.A/	2a/
.	.	.	2.cc\
.	.	4G/	.
.	.	2E/	.
.	.	.	4b\
.	.	2B\	2g/
=102	=102	=102	=102
0r	0r	2A/	1a
.	.	2.c\	.
.	.	.	2g/
.	.	4B\	.
.	.	2G/	2dd\
=103	=103	=103	=103
0r	0r	1A	2cc\
.	.	.	2.ee\
.	.	2G/	.
.	.	.	4dd\
.	.	2d\	2b\
=104	=104	=104	=104
0r	0r	2c\	2.cc\
.	.	2.e\	.
.	.	.	4b\
.	.	.	2g/
.	.	4d\	.
.	.	2B\	2dd\
=105	=105	=105	=105
0r	0r	2.c\	2cc\
.	.	.	2.ee\
.	.	4B\	.
.	.	2G/	.
.	.	.	4dd\
.	.	2d\	2b\
=106	=106	=106	=106
0r	1.e	2c\	2.cc\
.	.	2.g\	.
.	.	.	4b\
.	.	.	4g/
.	.	4f\	4a/
.	2d\	[2f\	[2b\
=107	=107	=107	=107
0r	2c\	4f\]	4b\]
.	.	4e\	4a/
.	2A/	1e	1a
.	1B	.	.
.	.	2d\	4g/
.	.	.	4f/
=108	=108	=108	=108
2E\	0r	2e\	2g/
2F\	.	2A/	2a/
1G	.	2B\	1d
.	.	[2G/	.
=109	=109	=109	=109
4E\	2r	2G/]	0r
4F\	.	.	.
4G\	2e\	4F/	.
4A\	.	4E/	.
2B\	2d\	2G/	.
[2c\	2c\	2A/	.
=110	=110	=110	=110
4c\]	1A	1F	0r
4B\	.	.	.
1A	.	.	.
.	1B	2E/	.
2G\	.	2B\	.
=111	=111	=111	=111
2A\	0r	2c\	2e/
2D\	.	2d\	2f/
2.E\	.	2B\	1g
.	.	[2e\	.
4C/	.	.	.
=112	=112	=112	=112
1C	2r	4e\]	4e/
.	.	4d\	4f/
.	2e\	2c\	4g/
.	.	.	4a/
1r	2d\	2B\	2b\
.	2c\	[2A/	[2cc\
=113	=113	=113	=113
0r	1A	4A/]	4cc\]
.	.	4G/	4b\
.	.	2F/	1a
.	1B	1E	.
.	.	.	2g#i/
=114	=114	=114	=114
1AA	1r	1e	0a
1D	[1A	1f	.
=115	=115	=115	=115
2C/	1A]	2e\	0r
2AA/	.	2c\	.
2BB/	1G	2d\	.
2C/	.	2e\	.
=116	=116	=116	=116
2D\	2F/	2A/	0r
2BB/	2D/	1d	.
1AA	1E	.	.
.	.	2c#i\	.
=117	=117	=117	=117
1D	1r	2d\	0r
.	.	2f\	.
1A	2r	2e\	.
.	[2e\	2c\	.
=118	=118	=118	=118
1G	2e\]	2.g\	1b
.	2d\	.	.
.	.	4f\	.
1A	2c\	4e\	1cc
.	.	4d\	.
.	2A/	[2e\	.
=119	=119	=119	=119
2.E\	2B\	2e\]	2b\
.	1e	2B\	2g/
4D\	.	.	.
2C/	.	2c\	2a/
2BB/	2d\	2d\	2b\
=120	=120	=120	=120
1AA	2c\	0e	2e/
.	2A/	.	1a
1E	1B	.	.
.	.	.	4g/
.	.	.	4f/
=121	=121	=121	=121
2r	1e	2r	1g
2C/	.	2E/	.
2D\	1d	2F/	1r
2BB/	.	2G/	.
=122	=122	=122	=122
1AA	2c\	2.A/	2.e/
.	2A/	.	.
.	.	4G/	4f/
2r	[1B	1E	2g/
2E\	.	.	2g/
=123	=123	=123	=123
2E\	1B]	2r	2g/
2E\	.	2e\	2g/
1E	1r	2e\	2g/
.	.	2e\	2g/
=124	=124	=124	=124
2r	1e	2e\	1g
2C/	.	2E/	.
2D\	1d	2F/	1r
2BB/	.	2G/	.
=125	=125	=125	=125
1AA	2c\	2.A/	2r
.	2A/	.	2a/
.	.	4G/	.
1r	1B	2E/	2g/
.	.	2D/	2f/
=126	=126	=126	=126
0r	2r	1A	2.e/
.	1e	.	.
.	.	.	4d/
.	.	1r	2c/
.	2d\	.	2B/
=127	=127	=127	=127
1r	2c\	0r	2A/
.	2A/	.	1a
1E	1B	.	.
.	.	.	2g#i/
=128	=128	=128	=128
2F\	2r	0r	1a
4E\	1A	.	.
4D\	.	.	.
2F\	.	.	1r
[2E\	2G/	.	.
=129	=129	=129	=129
4E\]	2F/	1r	0r
4D\	.	.	.
1D	2D/	.	.
.	1E	2r	.
2C#i/	.	2e\	.
=130	=130	=130	=130
1D	2r	2f\	0r
.	1A	4e\	.
.	.	4d\	.
1r	.	2f\	.
.	2G/	[2e\	.
=131	=131	=131	=131
1r	2F/	4e\]	0r
.	.	4d\	.
.	2D/	1d	.
2r	1E	.	.
2E\	.	2c#i\	.
=132	=132	=132	=132
2F\	0r	2d\	1r
4E\	.	2.A/	.
4D\	.	.	.
2F\	.	.	2r
.	.	4F/	.
2E\	.	2G/	2b\
=133	=133	=133	=133
1AA	2r	1A	2cc\
.	1e	.	4b\
.	.	.	4a/
1r	.	1r	2cc\
.	2d\	.	[2b\
=134	=134	=134	=134
0r	2c\	0r	4b\]
.	.	.	4a/
.	2A/	.	1a
.	1B	.	.
.	.	.	2g#i/
=135	=135	=135	=135
*M2/1	*M2/1	*M2/1	*
*met(3)	*met(3)	*met(3)	*
3%4A	3%4.r	3%4c	3%2aV
.	.	.	3%2e
3%2F	.	3%2A	3%2fZ
=136	=136	=136	=136
3%2.E	[3%4.e	3%2B	3%4gV
.	.	3%2.E	.
3F\	.	.	.
3%2G	.	.	[3%2gZ
.	.	3F/	.
=137	=137	=137	=137
3%4.C	3%4.e]	3%2G	3%2g]V
.	.	3%2C	3%4gZ
.	.	3%2c	.
=138	=138	=138	=138
3%4D	3%4d	3%2A	3%2fV
.	.	3%2.f	3%2.a
3%2AA	[3%2c	.	.
.	.	3e\	3g/Z
=139	=139	=139	=139
3%2.C	3%2c]	3%2e	3%2gV
.	3%4A	3%2E	3%2.cc
3BB/	.	.	.
3%2AA	.	3%2F	.
.	.	.	3b\Z
=140	=140	=140	=140
3%2GG	3%2B	3%2G	3%2bV
3%4AA	3%4e	3%4c	3%2.a
.	.	.	3g/Z
=141	=141	=141	=141
3%2BB	3%2d	3%2B	3%4gV
3%2C	3%2c	3%4A	.
3%2D	3%2A	.	3%2f#iZ
=142	=142	=142	=142
*M2/1	*M2/1	*M2/1	*
*met(C|)	*met(C|)	*met(C|)	*
1GG	[0B	1.G	[0g
[1G	.	.	.
.	.	4F/	.
.	.	4E/	.
=143	=143	=143	=143
2G\]	0B_	1E	0g]
4F\	.	.	.
4E\	.	.	.
1E	.	2r	.
.	.	[2G/	.
=144	=144	=144	=144
2r	0B_	4G/]	1r
.	.	4F/	.
2G\	.	2E/	.
2F\	.	2D/	2r
[2G\	.	[2E/	[2G/
=145	=145	=145	=145
2G\]	0B]	2E/]	4G/]
.	.	.	4A/
2E\	.	1G	4B/
.	.	.	4c/
1D	.	.	2d/
.	.	2F/	2B/
=146	=146	=146	=146
*	*M3/1	*M3/1	*M3/1
*	*met(3)	*met(3)	*met(3)
0CV	1r	0G	0.c
.	0e	.	.
1CZ	.	1c	.
=147	=147	=147	=147
1GV	1d	1B	1r
1A	1c	1c	1e
1FZ	1A	1d	1f
=148	=148	=148	=148
!LO:N:vis=0	!	!	!
0.E	0B	0e	1g
.	.	.	1g
.	[1e	1B	[1g
=149	=149	=149	=149
!LO:N:vis=0	!	!	!
0.r	0.e]	1.c	1g]
.	.	.	0g
.	.	2d\	.
.	.	1e	.
=150	=150	=150	=150
!LO:N:vis=0	!	!	!
0.r	1d	1f	1.a
.	1c	1.c	.
.	.	.	2g/
.	[1A	.	1a
.	.	2d\	.
=151	=151	=151	=151
!LO:N:vis=0	!	!	!
0.r	0.A]	0d	1f
.	.	.	0e
.	.	1c#i	.
=152	=152	=152	=152
*	*M2/1	*M2/1	*M2/1
*	*met(C|)	*met(C|)	*met(C|)
1r	[0Bl	2d\	1d
.	.	2B\	.
1G	.	4d\	2r
.	.	4c\	.
.	.	4B\	2d/
.	.	4A/	.
=153	=153	=153	=153
2E\	0B_	1G	2e/
2F\	.	.	1d
1G	.	2r	.
.	.	2G/	[2g/
=154	=154	=154	=154
1r	0B_	2E/	2g/]
.	.	2F/	4f/
.	.	.	4e/
2r	.	2G/	1d
2G\	.	2d\	.
=155	=155	=155	=155
2E\	0B_	2e\	1G
2F\	.	1d	.
1G	.	.	2r
.	.	[2g\	2d/
=156	=156	=156	=156
1r	0B_	2g\]	2e/
.	.	4f\	1d
.	.	4e\	.
2r	.	1d	.
2G\	.	.	[2g/
=157	=157	=157	=157
2E\	0B]	1G	2g/]
2F\	.	.	4f/
.	.	.	4e/
1G	.	1r	1d
=158	=158	=158	=158
*M2/1	*M2/1	*	*M2/1
*met(3)	*met(3)	*	*met(3)
3%2C	3%4e	3%4c	3%4c
3%2c	.	.	.
3%2B	3%2d	3%2d	3%2g
=159	=159	=159	=159
3%2.A	3%4c	3%2e	3%4aV
.	.	3%2c	.
3G\	.	.	.
3%2F	3%2A	3%2d	3%2aZ
=160	=160	=160	=160
3%4E	3%2B	3%4e	3%2.gV
.	3%2e	.	.
.	.	.	3a/
3%2G	3%2d	3%2r	3%2bZ
=161	=161	=161	=161
3%4A	3%4c	3%4e	3%2ccV
.	.	.	3%2a
3%2A	3%2A	3%2f	3%2ccZ
=162	=162	=162	=162
3%2G	3%2B	3%2g	3%2bV
3%2c	3%2e	3%2c	3%2g
3%2B	3%2d	3%2d	3%2bZ
=163	=163	=163	=163
3%2.A	3%4c	3%2e	3%2ccV
.	.	3%2c	3%4aZ
3G\	.	.	.
3%2F	3%2A	3%2d	.
=164	=164	=164	=164
*M2/1	*M2/1	*	*M2/1
*met(C|)	*met(C|)	*	*met(C|)
0E	1B	2.e\	0g
.	.	4f\	.
.	[1e	2g\	.
.	.	2G/	.
=165	=165	=165	=165
2r	1e]	1c	1r
2C/	.	.	.
2D\	1d	1r	1f
2BB/	.	.	.
=166	=166	=166	=166
1C	2c\	2r	1e
.	2A/	2c\	.
1r	1B	2d\	1d
.	.	2B\	.
=167	=167	=167	=167
2r	1e	1c	1c
2C/	.	.	.
2D\	1d	1r	1f
2BB/	.	.	.
=168	=168	=168	=168
1C	2c\	2r	1e
.	2A/	2c\	.
1r	1B	2d\	1d
.	.	2B\	.
=169	=169	=169	=169
*	*M3/1	*M3/1	*M3/1
*	*met(3)	*met(3)	*met(3)
0CV	0.e	0c	0c
1CZ	.	1c	1g
=170	=170	=170	=170
1.GV	0.d	0B	0g
2A\	.	.	.
1BZ	.	1G	1g
=171	=171	=171	=171
1cV	0c	1.A	1e
0AZ	.	.	1.f
.	.	2B\	.
.	1A	1c	.
.	.	.	2e/
=172	=172	=172	=172
0GV	0B	0d	0g
1rZ	1r	1r	1r
=173	=173	=173	=173
0CV	0.e	0c	0g
1CZ	.	1c	1g
=174	=174	=174	=174
1.GV	0.d	0B	0g
2A\	.	.	.
1BZ	.	1G	1g
=175	=175	=175	=175
1cV	0c	0e	1g
0AZ	.	.	0a
.	1A	1f	.
=176	=176	=176	=176
*	*M2/1	*M2/1	*M2/1
*	*met(C|)	*met(C|)	*met(C|)
0G	0B	0g	1d
.	.	.	1r
=177	=177	=177	=177
0r	2r	0r	1.g
.	1e	.	.
.	2d\	.	2f/
=178	=178	=178	=178
0r	2c\	0r	1e
.	2A/	.	.
.	1B	.	1d
=179	=179	=179	=179
0r	2r	0r	2c/
.	1e	.	1g
.	2d\	.	2f/
=180	=180	=180	=180
0r	2c\	0r	2e/
.	2A/	.	2c/
.	1B	.	1d
=181	=181	=181	=181
0r	2r	1.g	1c
.	1e	.	.
.	.	.	1r
.	2d\	2f\	.
=182	=182	=182	=182
0r	2c\	1e	0r
.	2A/	.	.
.	1B	1d	.
=183	=183	=183	=183
0r	2r	2c\	0r
.	1e	1g	.
.	2d\	2f\	.
=184	=184	=184	=184
0r	2c\	2e\	0r
.	2A/	2c\	.
.	1B	1d	.
=185	=185	=185	=185
1r	0e	0c	1r
2r	.	.	2r
2C/	.	.	2g/
=186	=186	=186	=186
1G	1d	2r	2g/
.	.	2B\	2g/
1A	2c\	1c	2.e/
.	2A/	.	.
.	.	.	4f/
=187	=187	=187	=187
1G	1B	1d	0g
1C	[1e	1c	.
=188	=188	=188	=188
1r	1e]	1g	2r
.	.	.	2g/
2r	1d	2r	2a/
2G\	.	2g\	2b\
=189	=189	=189	=189
1A	2c\	2e\	1cc
.	2A/	2f\	.
1G	1B	1g	2r
.	.	.	[2g/
=190	=190	=190	=190
1C	1e	2r	2g/]
.	.	2g\	2g/
2r	1d	2f\	2a/
2G\	.	2g\	2b\
=191	=191	=191	=191
2A\	2c\	2e\	1cc
2F\	2A/	2f\	.
2G\	1B	2d\	1r
2E\	.	[2e\	.
=192	=192	=192	=192
1C	1.e	2e\]	2r
.	.	1c	2g/
2r	.	.	2a/
2G\	2d\	2B\	2b\
=193	=193	=193	=193
2A\	2c\	1A	1cc
2F\	2A/	.	.
4G\	1B	1G	2r
4F\	.	.	.
4E\	.	.	[2g/
4D\	.	.	.
=194	=194	=194	=194
2C/	1.e	0r	2g/]
1c	.	.	2g/
.	.	.	2.a/
2B\	2d\	.	.
.	.	.	4g/
=195	=195	=195	=195
2A\	1c	1r	4f/
.	.	.	4e/
2G\	.	.	1e
1F	1A	1a	.
.	.	.	2d/
=196	=196	=196	=196
0E	1B	2g\	0e
.	.	1g	.
.	1e	.	.
.	.	4f\	.
.	.	4e\	.
=197	=197	=197	=197
1r	1d	2.f\	0r
.	.	4g\	.
1A	2c\	2e\	.
.	2A/	2c\	.
=198	=198	=198	=198
2G\	1B	2d\	0r
1G	.	2e\	.
.	1r	2d\	.
4F\	.	[2e\	.
4E\	.	.	.
=199	=199	=199	=199
2.F\	0r	2e\]	1a
.	.	2d\	.
4G\	.	.	.
[1E	.	1e	2g/
.	.	.	[2g/
=200	=200	=200	=200
1E]	1e	0r	2g/]
.	.	.	4f/
.	.	.	4e/
1r	1d	.	2.f/
.	.	.	4g/
=201	=201	=201	=201
1A	2c\	0r	2e/
.	2A/	.	2c/
2G\	1B	.	2d/
[2G\	.	.	2e/
=202	=202	=202	=202
2G\]	0r	1r	2d/
4F\	.	.	1e
4E\	.	.	.
2.F\	.	1a	.
.	.	.	2d/
4G\	.	.	.
=203	=203	=203	=203
0E	1r	2g\	1e
.	.	1g	.
.	1e	.	1g
.	.	4f\	.
.	.	4e\	.
=204	=204	=204	=204
0r	1d	2.f\	1a
.	.	4g\	.
.	2c\	1e	1cc
.	2A/	.	.
=205	=205	=205	=205
2r	1B	0r	2b\
1E	.	.	1g
.	1e	.	.
2C/	.	.	4f/
.	.	.	4e/
=206	=206	=206	=206
2D\	2d\	1r	2f/
2E\	2c\	.	1e
1F	1A	1a	.
.	.	.	2d/
=207	=207	=207	=207
2E\	2B\	2g\	1e
2C/	2e\	2e\	.
2D\	2d\	2f\	1r
2E\	2c\	[2e\	.
=208	=208	=208	=208
1F	1A	4e\]	2r
.	.	4c\	.
.	.	2d\	2a/
2E\	2B\	2e\	2g/
2C/	2e\	2g\	2cc\
=209	=209	=209	=209
2D\	2d\	2f\	2b\
2E\	2c\	2.e\	1cc
1F	1A	.	.
.	.	4c\	.
.	.	2d\	4b\
.	.	.	4a/
=210	=210	=210	=210
[0E	2B\	2.e\	0g
.	1e	.	.
.	.	4d\	.
.	.	2c\	.
.	2d\	2B\	.
=211	=211	=211	=211
0E]	2c\	1.e	1r
.	2A/	.	.
.	1B	.	1g
.	.	2d\	.
=212	=212	=212	=212
1r	2r	2c\	1a
.	1e	2A/	.
1G	.	1B	1g
.	2d\	.	.
=213	=213	=213	=213
1A	2c\	1r	1e
.	2A/	.	.
1G	1B	1d	1r
=214	=214	=214	=214
1E	0r	1e	0r
2F\	.	1d	.
2D\	.	.	.
=215	=215	=215	=215
2E\	1e	2B\	1r
2C/	.	2c\	.
2.D\	1d	2A/	2f/
.	.	2B\	2d/
4C/	.	.	.
=216	=216	=216	=216
1AA	2c\	2.c\	2e/
.	2A/	.	2f/
.	.	4d\	.
1E	2B\	1e	1g
.	2e\	.	.
=217	=217	=217	=217
1.F	2d\	2.A/	1a
.	2c\	.	.
.	.	4B\	.
.	1A	2.c\	2r
4E\	.	.	2cc\
4F\	.	4B\	.
=218	=218	=218	=218
1G	1B	2G/	2b\
.	.	2B\	2dd\
1r	2r	2A/	2.cc\
.	[2e\	[2c\	.
.	.	.	4b\
=219	=219	=219	=219
0r	2e\]	2c\]	4a/
.	.	.	4g/
.	2d\	2B\	1g
.	2c\	1A	.
.	2A/	.	2f#i/
=220	=220	=220	=220
2r	[0B	1G	0g
2G\	.	.	.
2.G\	.	2r	.
.	.	2G/	.
4E\	.	.	.
=221	=221	=221	=221
1E	0B]	2.G/	2r
.	.	.	2g/
.	.	4E/	.
2r	.	2E/	2.g/
2E\	.	2e\	.
.	.	.	4e/
=222	=222	=222	=222
2.C/	2r	2.e\	1e
.	1A	.	.
4AA/	.	4c\	.
2AA/	.	2.c\	2r
2C/	2G/	.	[2e/
.	.	4A/	.
=223	=223	=223	=223
2D\	2F/	2A/	4e/]
.	.	.	4d/
2BB/	2D/	2G/	1d
1AA	1E	1A	.
.	.	.	2c#i/
=224	=224	=224	=224
2r	0r	4D/	2.d/
.	.	4E/	.
2.D\	.	4F/	.
.	.	4G/	4e/
.	.	2.A/	4f/
4E\	.	.	4g/
4F\	.	.	[2a/
4G\	.	4B\	.
=225	=225	=225	=225
2.A\	2r	2.c\	4a/]
.	.	.	4b\
.	1e	.	4cc\
4B\	.	4d\	4b\
2c\	.	4e\	4g/
.	.	4f\	4a/
2G\	2d\	2g\	[2b\
=226	=226	=226	=226
2A\	2c\	2e\	4b\]
.	.	.	4a/
2F\	2A/	2d\	1a
1E	1B	1e	.
.	.	.	2g#i/
=227	=227	=227	=227
1.A	1r	2c\	1a
.	.	2A/	.
.	[1e	1a	[1cc
2B\	.	.	.
=228	=228	=228	=228
1c	1e]	1.g	1cc]
1G	1d	.	1b
.	.	2f\	.
=229	=229	=229	=229
1A	2c\	1.e	1a
.	2A/	.	.
1E	1B	.	1g
.	.	2d\	.
=230	=230	=230	=230
1F	2r	1.c	1f
.	1A	.	.
1C	.	.	1e
.	2G/	2B\	.
=231	=231	=231	=231
1D	1F	1A	0d
1BB	1D	1G	.
=232	=232	=232	=232
1AA	1E	0A	1r
[1F	[1A	.	1c
=233	=233	=233	=233
1F]	1A]	1D	1d
1E	1G	1G	1e
=234	=234	=234	=234
0D	1F	1.A	0f
.	1D	.	.
.	.	2B\	.
=235	=235	=235	=235
0C	1E	1c	1e
.	1e	1C	1g
=236	=236	=236	=236
1r	1d	1D	2.f/
.	.	.	4e/
1C	1c	1E	[1e
=237	=237	=237	=237
0D	[0A	0F	1e]
.	.	.	1d
=238	=238	=238	=238
0AA	0A]	[0E	[0e
=239	=239	=239	=239
0E	0B	0E]	0e]
==	==	==	==
*-	*-	*-	*-
!!!RDF**kern: l=long note in original notation
!!!RDF**kern: i=editorial accidental
!!!ENC: Jesse Rodin; Victoria Chang 2011/05/04
!!!END: 2011/05/04/
!!!EED:	Jesse Rodin
!!!EEV:	2011/09/19/
!!attribution-level@Jos: 1 (secure)
!!!ONB:	Translated from MusicXML and edited on 2011/09/19/ by Craig Sapp
!!muse2ps: T^@{OPR}^u^@{ONM}{. }@{OTL}^C^@{COM}\n@{SCT}^i2I100v85,90,85,150c100Q16
